lib/preview/nrk-logo-preview-nrk-super-title-below.svg

<svg width="45" height="31" viewBox="0 0 45 31" fill="none" xmlns="http://www.w3.org/2000/svg">
<g clip-path="url(#clip0_4164_1479)">
<path d="M22.1877 26.4433C22.2573 26.6265 22.2905 26.8213 22.2855 27.0171C22.2934 27.2813 22.2297 27.5429 22.1012 27.7742C21.9774 27.9838 21.8042 28.1601 21.5964 28.2879C21.364 28.4286 21.1085 28.5274 20.8417 28.5798C20.5345 28.6429 20.2215 28.6738 19.9079 28.6718C19.7632 28.6718 19.6204 28.6682 19.4793 28.661C19.3351 28.6534 19.1917 28.6353 19.0503 28.6068C18.9051 28.5777 18.7531 28.5415 18.5942 28.4983C18.4353 28.4551 18.2581 28.4009 18.0624 28.3356L18.0188 27.3513C18.1855 27.4092 18.3538 27.4634 18.5239 27.514C18.694 27.5647 18.8586 27.6061 19.0179 27.6384C19.177 27.6708 19.3307 27.6963 19.4794 27.7139C19.6143 27.7312 19.7502 27.7403 19.8863 27.741C20.0851 27.7421 20.2834 27.7223 20.478 27.6817C20.6415 27.6519 20.7947 27.5811 20.9232 27.4761C20.9798 27.4252 21.0242 27.3624 21.0533 27.2922C21.0824 27.2221 21.0954 27.1464 21.0913 27.0706C21.0918 26.9933 21.0731 26.9171 21.0369 26.8487C20.9988 26.7781 20.947 26.7157 20.8847 26.6651C20.8146 26.6076 20.7381 26.5585 20.6566 26.5187C20.57 26.4756 20.4796 26.4359 20.3853 26.3998C20.3127 26.3782 20.2388 26.3546 20.1626 26.3296C20.0865 26.3047 20.0072 26.2793 19.9238 26.2538C19.8404 26.2283 19.7575 26.2052 19.6741 26.1833C19.5908 26.1613 19.5078 26.1365 19.4245 26.1078C19.3411 26.0791 19.2599 26.0463 19.1803 26.0104C19.0364 25.9532 18.8983 25.8826 18.7679 25.7994C18.6411 25.72 18.5276 25.6216 18.4312 25.5075C18.333 25.3887 18.2576 25.253 18.2086 25.1071C18.1513 24.9345 18.1237 24.7535 18.1269 24.5718C18.1211 24.3171 18.1771 24.0647 18.2902 23.8362C18.3993 23.6265 18.5599 23.4478 18.7571 23.3168C18.9791 23.1715 19.2254 23.0672 19.4844 23.0087C19.7867 22.9378 20.0964 22.9033 20.4069 22.9059C20.5444 22.9059 20.6838 22.9113 20.8251 22.9221C20.9653 22.9327 21.1049 22.9508 21.2432 22.9763C21.3826 23.002 21.5204 23.0362 21.6556 23.0788C21.7966 23.1236 21.9344 23.178 22.068 23.2415L21.9815 24.1934C21.8781 24.142 21.771 24.0986 21.661 24.0636C21.5488 24.0274 21.4348 23.9949 21.319 23.9661C21.2032 23.9374 21.0892 23.9136 20.977 23.8956C20.8648 23.8776 20.7598 23.8651 20.662 23.8578C20.5643 23.8506 20.4759 23.8471 20.3962 23.8471C20.2395 23.8455 20.083 23.8599 19.9293 23.8902C19.8062 23.9141 19.6873 23.956 19.5764 24.0146C19.4875 24.0608 19.4126 24.1299 19.3596 24.2148C19.3117 24.2968 19.2873 24.3903 19.2889 24.4852C19.2867 24.5784 19.3113 24.6703 19.3596 24.7501C19.4064 24.8258 19.4671 24.8919 19.5386 24.945C19.6164 25.0023 19.7001 25.0513 19.7883 25.091C19.8799 25.1363 19.9743 25.176 20.0707 25.2099C20.1717 25.2461 20.2784 25.2786 20.3908 25.3074C20.5032 25.3362 20.6154 25.3704 20.7275 25.4101C20.8396 25.4497 20.95 25.4876 21.0587 25.5238C21.2212 25.5799 21.3791 25.6485 21.5309 25.7291C21.6765 25.8066 21.8084 25.9071 21.9217 26.0267C22.0354 26.1481 22.1256 26.2893 22.1877 26.4433ZM26.8909 23.0898L28.1284 22.9061L28.1176 28.5634H27.1515L26.9791 27.8606C26.9519 27.8861 26.9247 27.9117 26.8968 27.9361C26.7261 28.09 26.5386 28.2242 26.3376 28.3362C26.1441 28.4437 25.9381 28.5273 25.7243 28.5853C25.4993 28.6442 25.2675 28.6732 25.0348 28.6715C24.6751 28.682 24.3185 28.602 23.9979 28.4389C23.7103 28.2824 23.4831 28.0351 23.3521 27.7358C23.207 27.4224 23.1346 27.0204 23.1349 26.5297V23.09L24.3724 22.9063V26.3028C24.3653 26.5445 24.4059 26.7852 24.4918 27.0114C24.5618 27.1919 24.6921 27.3429 24.8608 27.4388C25.0622 27.5406 25.2864 27.589 25.512 27.5794C25.6487 27.5795 25.785 27.5668 25.9193 27.5416C26.0519 27.5167 26.1824 27.4823 26.3101 27.4388C26.4405 27.394 26.5674 27.3398 26.69 27.2767C26.7557 27.2429 26.8224 27.2062 26.8909 27.167V23.0898ZM33.6784 23.2365C33.2902 23.0001 32.8412 22.8817 32.3864 22.8957C32.1115 22.8968 31.8378 22.9333 31.5722 23.0042C31.288 23.08 31.0145 23.1909 30.7579 23.3342C30.7106 23.3604 30.6637 23.3899 30.6168 23.4191V22.9068L29.3793 23.1017V30.8254H30.6168V28.3946C30.8142 28.4776 31.0198 28.5399 31.2301 28.5805C31.4896 28.6295 31.7533 28.6529 32.0174 28.6506C32.5078 28.6584 32.9914 28.5353 33.418 28.294C33.8378 28.0478 34.1785 27.6875 34.4004 27.2554C34.6428 26.801 34.7641 26.2494 34.7641 25.6003C34.7739 25.1155 34.6795 24.6341 34.4874 24.1886C34.3176 23.7989 34.0362 23.4676 33.6784 23.2365ZM33.2874 26.8278C33.1615 27.1073 32.9483 27.3388 32.6795 27.4876C32.3782 27.6433 32.0418 27.7195 31.7025 27.7091C31.5463 27.7095 31.3903 27.6987 31.2357 27.6767C31.0734 27.6528 30.9136 27.6147 30.758 27.5631C30.7126 27.5484 30.6652 27.5326 30.6169 27.5157V24.1613L30.6277 24.1562C30.7796 24.0876 30.9226 24.0298 31.0567 23.9829C31.1822 23.9385 31.311 23.9041 31.442 23.8802C31.5602 23.859 31.6801 23.8482 31.8002 23.8478C32.1257 23.8363 32.4487 23.907 32.7393 24.0534C32.9923 24.1941 33.1909 24.4149 33.3036 24.6808C33.4414 25.0206 33.5063 25.3854 33.4941 25.7517C33.5051 26.1212 33.4345 26.4884 33.2874 26.8278ZM39.4828 26.0279C39.6973 25.9648 39.898 25.8621 40.0744 25.7252C40.2253 25.6047 40.3461 25.451 40.4273 25.2762C40.5076 25.0995 40.5483 24.9075 40.5467 24.7136C40.5457 24.4857 40.4956 24.2607 40.3998 24.0537C40.2984 23.8322 40.1504 23.6349 39.9658 23.4752C39.7545 23.2949 39.509 23.1587 39.2439 23.0748C38.9174 22.9721 38.5764 22.9228 38.234 22.9288C37.6406 22.9288 37.1376 23.0532 36.7252 23.3019C36.3141 23.5489 35.9883 23.915 35.7915 24.3513C35.5723 24.8467 35.4647 25.3839 35.4765 25.9251C35.4765 26.5241 35.5869 27.0289 35.8077 27.4396C36.0291 27.8514 36.3773 28.1814 36.8011 28.381C37.2426 28.5974 37.7855 28.7056 38.4297 28.7056C38.6695 28.7071 38.909 28.6908 39.1464 28.6567C39.357 28.626 39.5642 28.5754 39.7652 28.5054C39.9607 28.4371 40.1597 28.356 40.3623 28.262L40.4384 27.3643C40.1567 27.4743 39.8684 27.5664 39.575 27.64C39.2463 27.7191 38.9091 27.7573 38.571 27.7537C38.2999 27.7577 38.0296 27.7249 37.7675 27.6562C37.5454 27.6037 37.3422 27.491 37.1803 27.3306C37.0185 27.1703 36.9043 26.9684 36.8503 26.7474C36.8057 26.5926 36.7755 26.4339 36.7601 26.2736L38.6471 26.1741C38.9305 26.1586 39.211 26.1094 39.4828 26.0279ZM36.6492 25.47C36.6633 25.2063 36.7158 24.946 36.805 24.6974C36.8948 24.4349 37.0658 24.2076 37.2936 24.0482C37.5291 23.9016 37.8032 23.8282 38.0808 23.8375C38.3058 23.8282 38.5296 23.8748 38.7321 23.9731C38.8846 24.0503 39.0125 24.1683 39.1015 24.3139C39.1772 24.4378 39.2184 24.5797 39.2209 24.7248C39.2236 24.8367 39.1953 24.9471 39.1392 25.0441C39.074 25.1429 38.979 25.2187 38.8679 25.2605C38.7062 25.3219 38.5356 25.3566 38.3628 25.3632L36.6492 25.47ZM44.5713 22.9327L44.4195 24.0471C44.2801 24.0397 44.1404 24.0415 44.0013 24.0525C43.8751 24.0621 43.7499 24.0819 43.6269 24.1118C43.5108 24.1411 43.3965 24.1773 43.2848 24.2203C43.1702 24.265 43.0595 24.3193 42.954 24.3825C42.8743 24.4303 42.7945 24.4819 42.7151 24.5334V28.5583H41.4772V23.0843L42.715 22.9006V23.7698C42.7349 23.7467 42.7544 23.7234 42.7746 23.7011C42.9249 23.5326 43.0943 23.3819 43.2793 23.2521C43.459 23.1266 43.6592 23.0332 43.871 22.9761C44.0996 22.9175 44.3372 22.9027 44.5713 22.9327Z" fill="white"/>
<path d="M0 28.5918V23.0014H1.84966V28.5918H0ZM4.36616 23.8912L5.42988 28.5918H3.4056L2.13543 23.0014H3.27077C3.53112 22.9981 3.78373 23.0891 3.98125 23.2573C4.17909 23.4185 4.31501 23.6423 4.36616 23.8912ZM5.70774 28.5918V23.0014H7.5574V28.5918H5.70774ZM8.95445 25.1274C8.75514 25.1293 8.55902 25.0776 8.38697 24.9777C8.21723 24.8804 8.07623 24.7406 7.97813 24.5722C7.87736 24.4016 7.8252 24.207 7.82719 24.0093C7.8249 23.8127 7.87711 23.6193 7.97813 23.4502C8.07728 23.2837 8.21811 23.1454 8.38697 23.0487C8.55907 22.949 8.75515 22.8972 8.95445 22.899C9.15257 22.8969 9.3475 22.9487 9.51808 23.0487C9.68525 23.1462 9.82459 23.2844 9.92295 23.4502C10.0239 23.6194 10.0761 23.8127 10.0739 24.0093C10.0758 24.207 10.0236 24.4015 9.92295 24.5722C9.82563 24.7399 9.68612 24.8796 9.51808 24.9777C9.34749 25.0779 9.15243 25.1297 8.95419 25.1274H8.95445ZM10.3597 28.5918V23.0014H12.2095V28.5918H10.3597ZM14.5512 26.0564C14.5564 26.0619 14.5961 26.1262 14.6703 26.2493C14.7444 26.3725 14.841 26.53 14.96 26.7218C15.0791 26.9135 15.2048 27.1169 15.337 27.332C15.4692 27.5471 15.5936 27.7505 15.7102 27.9422C15.8264 28.1339 15.9587 28.3504 16.1071 28.5918H14.0749C13.9478 28.3871 13.8326 28.2021 13.7294 28.0367C13.6262 27.8714 13.5165 27.6929 13.4003 27.5013C13.2837 27.3099 13.1685 27.1235 13.0547 26.9422C12.9408 26.761 12.8429 26.6022 12.7611 26.4659C12.6789 26.3295 12.6219 26.2376 12.5903 26.1903C12.5117 26.0728 12.4653 25.9372 12.4554 25.7966C12.4633 25.6617 12.5071 25.5312 12.5823 25.4186C12.6141 25.3661 12.6723 25.2729 12.757 25.139C12.8417 25.0052 12.9409 24.8464 13.0547 24.6627C13.1685 24.479 13.2837 24.2913 13.4003 24.0997C13.5169 23.9081 13.6266 23.7283 13.7294 23.5603C13.8328 23.3925 13.948 23.2062 14.0749 23.0013H16.1071L14.5352 25.5445C14.4865 25.62 14.4591 25.7071 14.4558 25.7966C14.461 25.8906 14.4941 25.981 14.5509 26.0564H14.5512Z" fill="white"/>
<path fill-rule="evenodd" clip-rule="evenodd" d="M22.4288 0.253967C17.0429 0.253967 12.6476 4.63366 12.6476 10.0002C12.6476 15.3566 17.0427 19.7467 22.4289 19.7467C27.8043 19.7467 32.2102 15.3566 32.2102 10.0002C32.2101 4.63366 27.8042 0.253967 22.4288 0.253967ZM14.5658 10.0002C14.5658 14.3273 18.1178 17.9086 22.4288 17.9086C26.7817 17.9086 30.2919 14.3273 30.2918 10.0002C30.2918 5.62074 26.7817 2.09201 22.4288 2.09201C18.1178 2.09201 14.5658 5.62084 14.5658 10.0002ZM20.7003 10.0318C20.7022 10.2293 20.6644 10.4252 20.5893 10.608C20.5141 10.7908 20.4031 10.9568 20.2627 11.0962C20.1222 11.2356 19.9553 11.3456 19.7716 11.4198C19.5878 11.4941 19.3911 11.531 19.1929 11.5283C18.7945 11.5283 18.4125 11.3707 18.1308 11.09C17.8492 10.8093 17.6909 10.4287 17.6909 10.0318C17.6909 9.63484 17.8492 9.25418 18.1308 8.97351C18.4125 8.69285 18.7945 8.53518 19.1929 8.53518C19.3911 8.53255 19.5879 8.56943 19.7716 8.64365C19.9553 8.71786 20.1223 8.82792 20.2628 8.96735C20.4032 9.10677 20.5142 9.27276 20.5894 9.45556C20.6645 9.63836 20.7022 9.83428 20.7003 10.0318ZM27.5404 9.33868L26.5501 10.1259C26.4762 10.1784 26.4762 10.2308 26.4974 10.315L26.824 11.5229C26.8453 11.5862 26.8136 11.5962 26.7713 11.5646L25.7064 10.8719C25.6792 10.8514 25.6459 10.8403 25.6117 10.8403C25.5776 10.8403 25.5443 10.8514 25.517 10.8719L24.4418 11.5758C24.3996 11.6071 24.3679 11.5862 24.3891 11.5233L24.7157 10.3154C24.7304 10.2836 24.7342 10.2479 24.7266 10.2137C24.719 10.1796 24.7003 10.1489 24.6735 10.1263L23.6724 9.31743C23.6406 9.28616 23.6406 9.24412 23.6933 9.24412L24.9478 9.19161C24.9766 9.19254 25.0048 9.18368 25.0279 9.1665C25.051 9.14932 25.0675 9.12483 25.0748 9.09706L25.5593 7.88914C25.591 7.81583 25.6332 7.82587 25.6542 7.88914L26.0759 9.0552C26.085 9.09734 26.1094 9.13462 26.1445 9.15985C26.1795 9.18508 26.2227 9.19646 26.2657 9.19179L27.5094 9.2443C27.583 9.24412 27.5934 9.29664 27.5408 9.33868H27.5404Z" fill="white"/>
</g>
<defs>
<clipPath id="clip0_4164_1479">
<rect width="45" height="31" fill="white"/>
</clipPath>
</defs>
</svg>

<svg xmlns="http://www.w3.org/2000/svg" viewBox="0 0 45 31"><g fill="#fff" clip-path="url(#a)"><path d="M22.188 26.443c.07.183.103.378.098.574.007.264-.056.526-.185.757-.124.21-.297.386-.505.514-.232.14-.488.24-.754.292-.307.063-.62.094-.934.092-.145 0-.288-.004-.429-.011a2.96 2.96 0 0 1-.429-.054 6.944 6.944 0 0 1-.456-.109 9.915 9.915 0 0 1-.532-.162l-.043-.985c.167.058.335.112.505.163a5.689 5.689 0 0 0 .955.2c.135.017.271.026.407.027a2.82 2.82 0 0 0 .592-.06c.163-.03.317-.1.445-.205a.51.51 0 0 0 .168-.405.468.468 0 0 0-.054-.222.61.61 0 0 0-.152-.184 1.167 1.167 0 0 0-.228-.146 3.08 3.08 0 0 0-.272-.12 8.411 8.411 0 0 1-.222-.07c-.076-.024-.156-.05-.24-.075a6.478 6.478 0 0 0-.249-.07 2.848 2.848 0 0 1-.494-.173 2.447 2.447 0 0 1-.412-.212 1.443 1.443 0 0 1-.337-.291 1.256 1.256 0 0 1-.222-.4 1.609 1.609 0 0 1-.082-.536c-.006-.255.05-.507.163-.736.11-.21.27-.388.467-.52.222-.144.468-.249.727-.307.303-.071.612-.106.923-.103.137 0 .277.005.418.016.14.01.28.029.418.054a3.261 3.261 0 0 1 .825.265l-.086.952a2.258 2.258 0 0 0-.321-.13 5.204 5.204 0 0 0-.684-.167 3.763 3.763 0 0 0-.58-.049 2.293 2.293 0 0 0-.468.043 1.276 1.276 0 0 0-.353.125.56.56 0 0 0-.216.2.519.519 0 0 0-.071.27.49.49 0 0 0 .07.265.703.703 0 0 0 .18.195c.077.057.161.106.25.146.09.045.185.085.282.119.1.036.207.069.32.097.112.03.224.063.337.103.112.04.222.078.33.114.163.056.321.124.473.205.146.078.277.178.39.298.114.121.205.262.267.416Zm4.703-3.353 1.237-.184-.01 5.657h-.966l-.173-.702-.082.075c-.17.154-.358.288-.56.4a2.74 2.74 0 0 1-.613.25 2.646 2.646 0 0 1-.69.086c-.359.01-.715-.07-1.036-.233a1.473 1.473 0 0 1-.646-.703c-.145-.314-.217-.716-.217-1.206v-3.44l1.237-.184v3.397c-.007.241.034.482.12.708.07.18.2.332.369.428.201.102.425.15.651.14a2.2 2.2 0 0 0 .407-.037 2.833 2.833 0 0 0 .771-.265 5.14 5.14 0 0 0 .2-.11V23.09Zm6.787.146a2.345 2.345 0 0 0-1.292-.34 3.207 3.207 0 0 0-.814.108 3.542 3.542 0 0 0-.814.33c-.047.026-.094.056-.141.085v-.512l-1.238.195v7.723h1.238v-2.43c.197.083.403.145.613.186.26.049.523.072.787.07.49.007.974-.116 1.401-.357.42-.246.76-.607.982-1.039.243-.454.364-1.006.364-1.655a3.392 3.392 0 0 0-.277-1.411 2.162 2.162 0 0 0-.809-.953Zm-.39 3.592c-.127.28-.34.51-.608.66a1.995 1.995 0 0 1-.977.221 2.825 2.825 0 0 1-.945-.146 6.354 6.354 0 0 1-.141-.047V24.16l.01-.005c.153-.068.296-.126.43-.173.125-.044.254-.079.385-.103.118-.021.238-.032.358-.032.326-.012.649.059.94.205.252.141.45.362.564.628.137.34.202.704.19 1.07.011.37-.06.737-.207 1.077Zm6.195-.8c.214-.063.415-.166.591-.303.151-.12.272-.274.353-.449.08-.177.121-.369.12-.562a1.588 1.588 0 0 0-.147-.66 1.702 1.702 0 0 0-.434-.579 2.078 2.078 0 0 0-.722-.4 3.18 3.18 0 0 0-1.01-.146c-.593 0-1.096.124-1.509.373a2.354 2.354 0 0 0-.934 1.05 3.69 3.69 0 0 0-.314 1.573c0 .6.11 1.104.33 1.515.222.411.57.741.994.941.442.216.984.325 1.629.325.24.001.479-.015.716-.05.211-.03.418-.08.62-.15.195-.069.394-.15.596-.244l.076-.898c-.281.11-.57.202-.863.276-.329.08-.666.117-1.004.114a2.995 2.995 0 0 1-.803-.098 1.24 1.24 0 0 1-.918-.909 2.615 2.615 0 0 1-.09-.473l1.887-.1c.284-.015.564-.065.836-.146Zm-2.834-.558c.014-.264.067-.524.156-.773.09-.262.26-.49.489-.649.235-.146.51-.22.787-.21.225-.01.449.037.651.135a.92.92 0 0 1 .37.34.815.815 0 0 1 .119.412.608.608 0 0 1-.082.32.562.562 0 0 1-.271.215 1.594 1.594 0 0 1-.505.103l-1.714.107Zm7.922-2.537-.151 1.114a3.172 3.172 0 0 0-.419.005c-.126.01-.251.03-.374.06-.116.03-.23.065-.342.108a2.198 2.198 0 0 0-.331.163c-.08.047-.16.099-.239.15v4.025h-1.238v-5.474l1.238-.183v.869l.06-.069c.15-.168.32-.32.504-.449.18-.125.38-.219.592-.276.229-.058.466-.073.7-.043ZM0 28.592v-5.59h1.85v5.59H0Zm4.366-4.7 1.064 4.7H3.406l-1.27-5.59H3.27c.26-.004.513.087.71.255.198.162.334.385.385.634Zm1.342 4.7v-5.59h1.85v5.59h-1.85Zm3.246-3.465a1.11 1.11 0 0 1-.567-.15 1.114 1.114 0 0 1-.409-1.527 1.128 1.128 0 0 1 .976-.551c.199-.002.393.05.564.15.167.097.307.235.405.401.1.17.153.363.15.56a1.122 1.122 0 0 1-.556.968c-.17.1-.365.152-.563.15Zm1.406 3.465v-5.59h1.85v5.59h-1.85Zm4.191-2.536c.005.006.045.07.12.193.073.123.17.281.289.473a148.408 148.408 0 0 1 .75 1.22c.116.192.249.408.397.65h-2.032l-.346-.555a48.75 48.75 0 0 1-.329-.536 49.165 49.165 0 0 0-.345-.559c-.114-.181-.212-.34-.294-.476a8.426 8.426 0 0 0-.17-.276.81.81 0 0 1-.136-.393.76.76 0 0 1 .127-.378c.032-.053.09-.146.175-.28a59.018 59.018 0 0 0 .643-1.04 260.044 260.044 0 0 1 .675-1.098h2.032l-1.572 2.543a.5.5 0 0 0-.08.253.475.475 0 0 0 .096.26Z"/><path fill-rule="evenodd" d="M22.429.254c-5.386 0-9.781 4.38-9.781 9.746 0 5.357 4.395 9.747 9.78 9.747 5.376 0 9.782-4.39 9.782-9.747 0-5.366-4.406-9.746-9.781-9.746ZM14.566 10c0 4.327 3.552 7.909 7.863 7.909 4.353 0 7.863-3.582 7.863-7.909 0-4.38-3.51-7.908-7.863-7.908-4.311 0-7.863 3.529-7.863 7.908Zm6.134.032a1.479 1.479 0 0 1-.928 1.388 1.49 1.49 0 0 1-.58.108c-.398 0-.78-.157-1.061-.438a1.494 1.494 0 0 1 1.062-2.555 1.492 1.492 0 0 1 1.396.92c.076.183.113.38.111.577Zm6.84-.693-.99.787c-.074.052-.074.105-.053.189l.327 1.208c.021.063-.01.073-.053.042l-1.065-.693a.157.157 0 0 0-.189 0l-1.075.704c-.042.031-.074.01-.053-.053l.327-1.208a.16.16 0 0 0-.043-.189l-1-.809c-.032-.03-.032-.073.02-.073l1.255-.052a.127.127 0 0 0 .127-.095l.484-1.208c.032-.073.074-.063.095 0l.422 1.166a.174.174 0 0 0 .19.137l1.243.052c.074 0 .084.053.032.095Z" clip-rule="evenodd"/></g><defs><clipPath id="a"><path fill="#fff" d="M0 0h45v31H0z"/></clipPath></defs></svg>
